src/icon.svg

<svg clip-rule="evenodd" fill-rule="evenodd" stroke-linejoin="round" stroke-miterlimit="2" viewBox="0 0 80 80" xmlns="http://www.w3.org/2000/svg"><path d="m74.152 8.141c0-4.493-3.505-8.141-7.821-8.141h-52.662c-4.316 0-7.821 3.648-7.821 8.141v63.718c0 4.493 3.505 8.141 7.821 8.141h52.662c4.316 0 7.821-3.648 7.821-8.141z" fill="#0b72b8" transform="matrix(1.04086 0 0 1 -1.63448 0)"/><g fill="#fff" fill-rule="nonzero"><path d="m.516-.667v.148h-.048c-.005-.016-.01-.03-.015-.042-.006-.012-.011-.022-.016-.03-.006-.008-.012-.015-.019-.02-.006-.005-.014-.008-.023-.01-.01-.002-.02-.003-.033-.003h-.154v.256h.104c.014 0 .026-.002.034-.006s.015-.011.02-.021c.005-.009.01-.025.015-.045h.046v.187h-.046c-.004-.019-.009-.034-.015-.044-.005-.01-.012-.017-.02-.021-.007-.005-.019-.007-.034-.007h-.104v.282h.151c.016 0 .029-.001.039-.004s.019-.008.026-.014c.007-.007.013-.016.019-.026.005-.011.01-.022.014-.034.004-.011.009-.028.015-.05h.049l-.01.171h-.452v-.024c.02-.005.034-.011.041-.017.006-.007.011-.016.013-.027.002-.012.003-.03.003-.054v-.422c0-.023-.001-.039-.002-.05-.002-.01-.005-.018-.008-.023-.004-.006-.009-.011-.015-.014-.006-.004-.017-.007-.032-.012v-.024z" transform="matrix(48 0 0 48 12.648 54.957)"/><path d="m.18-.015v.103c0 .022 0 .037.002.048.001.01.004.018.008.024.003.006.009.011.016.015s.018.008.034.011v.024h-.199v-.024c.011-.003.021-.007.028-.01s.013-.008.017-.015.006-.016.008-.027c.001-.012.002-.027.002-.046v-.419c0-.023-.001-.04-.001-.05-.001-.01-.002-.018-.004-.024-.002-.007-.005-.012-.009-.016-.003-.005-.009-.008-.015-.011s-.017-.006-.031-.009v-.026l.114-.004h.03l-.006.079.007.002c.02-.02.036-.035.048-.044.012-.01.024-.017.036-.024.013-.006.025-.01.037-.013.011-.002.023-.004.036-.004.054 0 .095.02.124.061.029.04.043.099.043.176 0 .054-.008.099-.024.136-.016.036-.04.064-.071.082-.031.019-.068.028-.111.028-.024 0-.046-.002-.066-.006-.019-.004-.037-.01-.053-.017zm0-.161c0 .031.002.056.006.072.003.017.01.031.02.042.01.01.022.018.035.023.014.006.032.008.054.008.039 0 .069-.016.089-.049s.03-.081.03-.145c0-.127-.038-.191-.112-.191-.018 0-.034.003-.047.009-.014.005-.027.014-.04.027s-.022.025-.027.037c-.006.012-.008.025-.008.038z" transform="matrix(48 0 0 48 40.257 54.957)"/></g></svg>

<?xml version="1.0" encoding="UTF-8" standalone="no"?>
<!DOCTYPE svg PUBLIC "-//W3C//DTD SVG 1.1//EN" "http://www.w3.org/Graphics/SVG/1.1/DTD/svg11.dtd">
<svg width="100%" height="100%" viewBox="0 0 80 80" version="1.1" xmlns="http://www.w3.org/2000/svg" xmlns:xlink="http://www.w3.org/1999/xlink" xml:space="preserve" xmlns:serif="http://www.serif.com/" style="fill-rule:evenodd;clip-rule:evenodd;stroke-linejoin:round;stroke-miterlimit:2;">
    <g transform="matrix(1.04086,0,0,1,-1.63448,0)">
        <path d="M74.152,8.141C74.152,3.648 70.647,0 66.331,0L13.669,0C9.353,0 5.848,3.648 5.848,8.141L5.848,71.859C5.848,76.352 9.353,80 13.669,80L66.331,80C70.647,80 74.152,76.352 74.152,71.859L74.152,8.141Z" style="fill:rgb(11,114,184);"/>
    </g>
    <g transform="matrix(55.4997,0,0,55.4997,23.9051,58.5091)">
        <path d="M0.516,-0.667L0.516,-0.519L0.468,-0.519C0.463,-0.535 0.458,-0.549 0.453,-0.561C0.447,-0.573 0.442,-0.583 0.437,-0.591C0.431,-0.599 0.425,-0.606 0.418,-0.611C0.412,-0.616 0.404,-0.619 0.395,-0.621C0.385,-0.623 0.375,-0.624 0.362,-0.624L0.208,-0.624L0.208,-0.368L0.312,-0.368C0.326,-0.368 0.338,-0.37 0.346,-0.374C0.354,-0.378 0.361,-0.385 0.366,-0.395C0.371,-0.404 0.376,-0.42 0.381,-0.44L0.427,-0.44L0.427,-0.253L0.381,-0.253C0.377,-0.272 0.372,-0.287 0.366,-0.297C0.361,-0.307 0.354,-0.314 0.346,-0.318C0.339,-0.323 0.327,-0.325 0.312,-0.325L0.208,-0.325L0.208,-0.043L0.359,-0.043C0.375,-0.043 0.388,-0.044 0.398,-0.047C0.408,-0.05 0.417,-0.055 0.424,-0.061C0.431,-0.068 0.437,-0.077 0.443,-0.087C0.448,-0.098 0.453,-0.109 0.457,-0.121C0.461,-0.132 0.466,-0.149 0.472,-0.171L0.521,-0.171L0.511,0L0.059,0L0.059,-0.024C0.079,-0.029 0.093,-0.035 0.1,-0.041C0.106,-0.048 0.111,-0.057 0.113,-0.068C0.115,-0.08 0.116,-0.098 0.116,-0.122L0.116,-0.544C0.116,-0.567 0.115,-0.583 0.114,-0.594C0.112,-0.604 0.109,-0.612 0.106,-0.617C0.102,-0.623 0.097,-0.628 0.091,-0.631C0.085,-0.635 0.074,-0.638 0.059,-0.643L0.059,-0.667L0.516,-0.667Z" style="fill:white;fill-rule:nonzero;"/>
    </g>
</svg>
